X:1
T:Title
%%score ( 1 2 ) { 3 | 4 }
L:1/8
Q:1/4=86
M:6/8
K:Eb
V:1 treble nm="Grand Piano, Soprano"
V:2 treble 
V:3 bass nm="Choir Pad, Bass"
V:4 bass 
V:1
 E[EG]>[B,F] [B,E]ED | [B,E] [DF]2 [DG] E2 | [EG][GB]>[FA] [EG] [GB]2 | [EG] [FA]2 [EG] [DF]2 | %4
w: By~James~L.~Gilbert * * * * *||||
 [DF][EG]>F [EG] [DA]2 | [DA]Be [Fd] [Ec]2 | [Ec] [EF]2 [DF] [EB]2 | [FA] [DF]2 [B,E] [B,E]2 | %8
w: ||||
 [GB][Ge]>[Gd] [Ac] [GB]2 | [EG] E2 [EF] [EG]2 | [EG][Ec]>[Ec] [Ec] [EB]2 | [EB] [DA]2 [EG] [DF]2 | %12
w: ||||
 [DF][EG]>[EG] [EG] [DB]2 | [DB] [Ee]2 [Fd] [Ec]2 | [Ac][_Ge]>[Gd] [Gc] .[=GB]2 | %15
w: |||
 [EG][DF]>[B,E] [DF] [B,E]2- | [B,E]6 |] %17
w: ||
V:2
 z3 z B,2 | x6 | x6 | x6 | x6 | z E2 z3 | x6 | x6 | x6 | x6 | x6 | x6 | x6 | x6 | x6 | x6 | x6 |] %17
V:3
 G,B,>A, G,G,A, | G, A,2 B, G,2 | B,[K:treble]E>E B, E2 | B,[K:bass] B,2 B, B,2 | B, B,2 B, B,2 | %5
 B, B,2 =B,[K:treble] C2 | C C2 B,B,_D | C[K:bass] A,2 G, G,2 | EB,>B,[K:treble] C C2 | %9
 _D C2 =B,[K:bass] _B,2 | B,A,>A, A, B,2 | B, B,2 B, B,2 | B,B,>B, B, B,2 | %13
 B, B,2 =B,[K:treble] C2 | EC>C E .E2 | B,A,>G, A, G,2- | G,6 |] %17
V:4
 E,E,>E, E,E,F, | E, B,,2 B,, E,2 | E,E,>E, E, E,2 | E, D,2 E, B,,2 | B,, E,2 E, F,2 | %5
 F, G,2 G, A,2 | A, A,2 A,G,G,, | A,, B,,2 E, E,2 | E,E,>E, E, E,2 | G, A,2 A, E,2 | .E,3 z G,2 | %11
 G, F,2 E, B,,2 | B,,E,>E, E, F,2 | A, G,2 G, A,2 | A,=A,>A, A, .B,2 | B,,B,,>B,, B,, E,2- | E,6 |] %17

